src/.vuepress/public/assets/opensats-logo.svg

<svg width="150" height="100" style="clip-rule:evenodd;fill-rule:evenodd;image-rendering:optimizeQuality;shape-rendering:geometricPrecision;text-rendering:geometricPrecision" version="1.1" id="svg587" xml:space="preserve" xmlns="http://www.w3.org/2000/svg"><style id="style324">.st2{fill:#ffc214}.st3{fill:#f9f185}.st0{fill:#222221}.st1{fill:#272425}</style><g id="g1" transform="translate(9.025 40.522) scale(.02528)" style="clip-rule:evenodd;fill-rule:evenodd;image-rendering:optimizeQuality;shape-rendering:geometricPrecision;text-rendering:geometricPrecision"><path d="m0 435.197 229.609-143.6v-3.476L0 144.259V29.051l334.901 216.843v87.93L0 550.798Z" fill="#f30" id="path1-3"/><path d="M486.969 623.844h415.658v95.799H486.969Z" fill="#f30" id="path2"/><path d="M993.879 291.2C993.879 106.422 1084.61 0 1214.37 0c129.76 0 220.49 106.422 220.49 291.2 0 187.861-90.73 296.381-220.49 296.381S993.879 479.061 993.879 291.2zm351.241 0c0-136.19-51.96-215.203-130.75-215.203-78.79 0-130.75 79.013-130.75 215.203 0 139.273 51.96 220.384 130.75 220.384 78.79 0 130.48-81.111 130.48-220.384z" fill="#f30" id="path3"/><path d="M1593.29 154.29h70.52l6.56 51.08h2.76c38.18-35.736 91.58-61.112 141.31-61.112 111.52 0 173.58 84.455 173.58 215.597 0 144.256-90.07 228.056-190.25 228.056-38.64 0-84.23-19.082-120.38-52.457h-2.1l4.14 76.783v137.699h-86.14zm306.36 205.565c0-88.586-32.21-144.256-108.44-144.256-34.64 0-73.28 17.114-111.52 56.522v199.991c35.1 31.802 74.92 43.343 101.88 43.343 67.18.262 118.08-55.604 118.08-155.6z" fill="#f30" id="path4"/><path d="M2118.96 365.035c0-137.699 103.79-221.105 217.02-221.105 124.18 0 194.84 81.504 194.84 199.597a316.484 316.484 0 0 1-3.94 46.818h-348.15V327.2h294.49l-18.7 21.049c0-91.8-44.35-137.699-116.05-137.699-74.06 0-134.81 54.62-134.81 154.354 0 103.929 65.14 155.14 156.13 155.14 47.3 0 85.29-14.294 123.6-37.244l30.17 54.49a299.162 299.162 0 0 1-164.99 50.292c-128.18 0-229.61-81.635-229.61-222.547z" fill="#f30" id="path5"/><path d="M2658.41 154.29h70.66l6.56 67.407h3.41c42.51-43.408 90.79-77.439 156.13-77.439 98.93 0 144 60.784 144 170.943v261.825h-86.27V326.152c0-73.833-24.79-107.93-87.51-107.93-45.92 0-77.08 22.622-120.71 67.341v291.463h-86.27z" fill="#f30" id="path6"/><path d="m3208.36 504.308 51.1-59.932a238.681 238.681 0 0 0 162.04 67.079c71.77 0 111.53-32.786 111.53-78.685 0-55.408-41.4-70.817-97.62-94.553l-79.84-34.884c-57.93-22.819-121.36-64.719-121.36-148.19 0-88.324 79.44-155.141 191.43-155.141a254.42 254.42 0 0 1 178.11 71.079l-44.88 55.473a200.053 200.053 0 0 0-136.97-50.555c-59.7 0-99.79 27.605-99.79 74.029 0 49.178 48.94 67.145 98.87 86.488l76.95 33.9c71.11 27.671 124.25 69.112 124.25 151.928 0 91.012-76.82 165.239-205.4 165.239a298.439 298.439 0 0 1-208.42-83.275z" fill="#000" id="path7"/><path d="M3762.96 465.557c0-94.816 86.08-141.502 299.74-157.371-3.08-52.456-31.16-94.29-106.4-94.29-51.17 0-101.62 23.408-143.02 47.604l-32.8-57.506c47.5-29.31 118.09-59.932 191.3-59.932 116.64 0 177.13 66.883 177.13 178.616v254.349h-71.18l-6.89-54.883h-2.76c-45.26 35.409-104.11 65.571-162.04 65.571-80.88-.131-143.08-47.67-143.08-122.158zm299.74-3.279v-99.012c-165.91 11.868-215.44 45.31-215.44 95.734 0 42.489 38.12 60.063 83.39 60.063 45.26 0 88.23-21.18 132.05-56.785z" fill="#000" id="path8"/><path d="M4388.81 409.884V222.941h-116.64v-64.128l119.99-4.524 11.28-134.027h71.58v134.027h199.62v68.652h-199.62v187.205c0 72.718 25.71 107.93 102.27 107.93a270.172 270.172 0 0 0 96.44-18.097l17.51 63.013a391.161 391.161 0 0 1-133.89 24.589c-126.49 0-168.54-71.538-168.54-177.697z" fill="#000" id="path9"/><path d="m4818.71 521.815 38.38-55.801a307.444 307.444 0 0 0 180.34 55.473c64.88 0 95.91-26.228 95.91-57.637 0-29.9-17.58-48.85-124.12-70.816-111.52-23.147-164.01-61.834-164.01-125.831 0-70.685 63.64-123.273 180.74-123.273 67.31 0 131.6 26.228 173.98 54.948l-40.48 53.768a255.28 255.28 0 0 0-140.85-43.342c-62.98 0-87.32 24.851-87.32 53.834 0 32.785 33.79 45.899 116.84 63.8 137.77 30.163 172.21 65.571 172.21 131.798 0 70.751-68.62 128.846-193.53 128.846a377.209 377.209 0 0 1-208.09-65.767z" fill="#000" id="path10"/></g></svg>

<svg width="5220" height="720" viewBox="0 0 5220 720" fill="none" xmlns="http://www.w3.org/2000/svg">
<g clip-path="url(#clip0_1266_2292)">
<rect width="5220" height="720" fill="white"/>
<g clip-path="url(#clip1_1266_2292)">
<path d="M0 435.197L229.609 291.597V288.121L0 144.259V29.0508L334.901 245.894V333.824L0 550.798V435.197Z" fill="#FF3300"/>
<path d="M486.969 623.844H902.627V719.643H486.969V623.844Z" fill="#FF3300"/>
<path d="M993.879 291.2C993.879 106.422 1084.61 0 1214.37 0C1344.13 0 1434.86 106.422 1434.86 291.2C1434.86 479.061 1344.13 587.581 1214.37 587.581C1084.61 587.581 993.879 479.061 993.879 291.2ZM1345.12 291.2C1345.12 155.01 1293.16 75.9967 1214.37 75.9967C1135.58 75.9967 1083.62 155.01 1083.62 291.2C1083.62 430.473 1135.58 511.584 1214.37 511.584C1293.16 511.584 1344.85 430.473 1344.85 291.2H1345.12Z" fill="#FF3300"/>
<path d="M1593.29 154.29H1663.81L1670.37 205.37H1673.13C1711.31 169.634 1764.71 144.258 1814.44 144.258C1925.96 144.258 1988.02 228.713 1988.02 359.855C1988.02 504.111 1897.95 587.911 1797.77 587.911C1759.13 587.911 1713.54 568.829 1677.39 535.454H1675.29L1679.43 612.237V749.936H1593.29V154.29ZM1899.65 359.855C1899.65 271.269 1867.44 215.599 1791.21 215.599C1756.57 215.599 1717.93 232.713 1679.69 272.121V472.112C1714.79 503.914 1754.61 515.455 1781.57 515.455C1848.75 515.717 1899.65 459.851 1899.65 359.855Z" fill="#FF3300"/>
<path d="M2118.96 365.035C2118.96 227.336 2222.75 143.93 2335.98 143.93C2460.16 143.93 2530.82 225.434 2530.82 343.527C2530.67 359.209 2529.35 374.858 2526.88 390.345H2178.73V327.2H2473.22L2454.52 348.249C2454.52 256.449 2410.17 210.55 2338.47 210.55C2264.41 210.55 2203.66 265.17 2203.66 364.904C2203.66 468.833 2268.8 520.044 2359.79 520.044C2407.09 520.044 2445.08 505.75 2483.39 482.8L2513.56 537.29C2464.7 569.886 2407.32 587.378 2348.57 587.582C2220.39 587.582 2118.96 505.947 2118.96 365.035Z" fill="#FF3300"/>
<path d="M2658.41 154.29H2729.07L2735.63 221.697H2739.04C2781.55 178.289 2829.83 144.258 2895.17 144.258C2994.1 144.258 3039.17 205.042 3039.17 315.201V577.026H2952.9V326.152C2952.9 252.319 2928.11 218.222 2865.39 218.222C2819.47 218.222 2788.31 240.844 2744.68 285.563V577.026H2658.41V154.29Z" fill="#FF3300"/>
<path d="M3208.36 504.308L3259.46 444.376C3303 486.486 3360.93 510.468 3421.5 511.455C3493.27 511.455 3533.03 478.669 3533.03 432.77C3533.03 377.362 3491.63 361.953 3435.41 338.217L3355.57 303.333C3297.64 280.514 3234.21 238.614 3234.21 155.143C3234.21 66.8186 3313.65 0.001814 3425.64 0.001814C3492.01 -0.442962 3555.93 25.0654 3603.75 71.0807L3558.87 126.554C3521.22 93.051 3472.3 74.9951 3421.9 75.9985C3362.2 75.9985 3322.11 103.604 3322.11 150.028C3322.11 199.206 3371.05 217.173 3420.98 236.516L3497.93 270.416C3569.04 298.087 3622.18 339.528 3622.18 422.344C3622.18 513.356 3545.36 587.583 3416.78 587.583C3339.11 587.998 3264.34 558.123 3208.36 504.308V504.308Z" fill="black"/>
<path d="M3762.96 465.557C3762.96 370.741 3849.04 324.055 4062.7 308.186C4059.62 255.73 4031.54 213.896 3956.3 213.896C3905.13 213.896 3854.68 237.304 3813.28 261.5L3780.48 203.994C3827.98 174.684 3898.57 144.062 3971.78 144.062C4088.42 144.062 4148.91 210.945 4148.91 322.678V577.027H4077.73L4070.84 522.144H4068.08C4022.82 557.553 3963.97 587.715 3906.04 587.715C3825.16 587.584 3762.96 540.045 3762.96 465.557ZM4062.7 462.278V363.266C3896.79 375.134 3847.26 408.576 3847.26 459C3847.26 501.489 3885.38 519.063 3930.65 519.063C3975.91 519.063 4018.88 497.883 4062.7 462.278Z" fill="black"/>
<path d="M4388.81 409.884V222.941H4272.17V158.813L4392.16 154.289L4403.44 20.2617H4475.02V154.289H4674.64V222.941H4475.02V410.146C4475.02 482.864 4500.73 518.076 4577.29 518.076C4610.27 517.981 4642.96 511.847 4673.73 499.979L4691.24 562.992C4648.39 578.951 4603.07 587.274 4557.35 587.581C4430.86 587.581 4388.81 516.043 4388.81 409.884Z" fill="black"/>
<path d="M4818.71 521.815L4857.09 466.014C4909.9 502.948 4972.98 522.353 5037.43 521.487C5102.31 521.487 5133.34 495.259 5133.34 463.85C5133.34 433.95 5115.76 415 5009.22 393.034C4897.7 369.887 4845.21 331.2 4845.21 267.203C4845.21 196.518 4908.85 143.93 5025.95 143.93C5093.26 143.93 5157.55 170.158 5199.93 198.878L5159.45 252.646C5117.79 224.668 5068.79 209.592 5018.6 209.304C4955.62 209.304 4931.28 234.155 4931.28 263.138C4931.28 295.923 4965.07 309.037 5048.12 326.938C5185.89 357.101 5220.33 392.509 5220.33 458.736C5220.33 529.487 5151.71 587.582 5026.8 587.582C4952.47 586.641 4880.07 563.76 4818.71 521.815V521.815Z" fill="black"/>
</g>
</g>
<defs>
<clipPath id="clip0_1266_2292">
<rect width="5220" height="720" fill="white"/>
</clipPath>
<clipPath id="clip1_1266_2292">
<rect width="5220" height="750" fill="white"/>
</clipPath>
</defs>
</svg>
